X: 1
T: Hundred Pipers March, The
M: 4/4
L: 1/8
R: barndance
K: Gmaj
|: D GA | B2 D2 DE D2 | E3 F G2 e2 | d2 B2 cB AG | B2 A2 A2 GA |
B2 D2 D2 EF | G3 F G2 e2 | d2 B2 cB A2 | G4- G :|
G Bc | d3 ^c dB G2 | e3 c g2 fe | d2 B2 cB AG | B2 A2 AG Bc |
de d2 d^c d2 | ec G2 g2 fe | d2 B2 cB A2 | G4- GG Bc |
d2 ^c2 d2 BG | e2 c2 ga/g/ fe | d2 B2 cB A2 | B2 A2 A2 A/B/c |
dG Bc d2 ^cd | e3 f g2 ge | d2 B2 AB/A/ GF | G4- G |]
